packages/web-icons/svgs/menu_1.svg

<svg viewBox="0 0 48 38" xmlns="http://www.w3.org/2000/svg" class="ridi_icon"><path d="M46.5 5.7h-45C.5 5.7 0 5.1 0 4.2V1.8C0 .9.6.3 1.5.3h45c.9 0 1.5.6 1.5 1.5v2.4c0 .9-.5 1.5-1.5 1.5zm0 16h-45c-.9 0-1.5-.6-1.5-1.5v-2.4c0-.9.6-1.5 1.5-1.5h45c.9 0 1.5.6 1.5 1.5v2.4c0 .8-.5 1.5-1.5 1.5zm0 16h-45c-.9 0-1.5-.6-1.5-1.5v-2.4c0-.9.6-1.5 1.5-1.5h45c.9 0 1.5.6 1.5 1.5v2.3c0 1-.5 1.6-1.5 1.6z"/></svg>

<?xml version="1.0" encoding="UTF-8"?>
<svg width="48px" height="38px" viewBox="0 0 48 38" version="1.1" xmlns="http://www.w3.org/2000/svg">
  <!-- Generator: Sketch 41.2 (35397) - http://www.bohemiancoding.com/sketch -->
  <title>menu_1</title>
  <desc>Created with Sketch.</desc>
  <defs></defs>
  <g id="Page-1" stroke="none" stroke-width="1" fill="none" fill-rule="evenodd">
    <g id="menu_1" fill="#000000">
      <g id="Layer_1">
        <path d="M46.5,5.7 L1.5,5.7 C0.5,5.7 0,5.1 0,4.2 L0,1.8 C0,0.9 0.6,0.3 1.5,0.3 L46.5,0.3 C47.4,0.3 48,0.9 48,1.8 L48,4.2 C48,5.1 47.5,5.7 46.5,5.7 Z" id="Shape"></path>
        <path d="M46.5,21.7 L1.5,21.7 C0.6,21.7 0,21.1 0,20.2 L0,17.8 C0,16.9 0.6,16.3 1.5,16.3 L46.5,16.3 C47.4,16.3 48,16.9 48,17.8 L48,20.2 C48,21 47.5,21.7 46.5,21.7 Z" id="Shape"></path>
        <path d="M46.5,37.7 L1.5,37.7 C0.6,37.7 0,37.1 0,36.2 L0,33.8 C0,32.9 0.6,32.3 1.5,32.3 L46.5,32.3 C47.4,32.3 48,32.9 48,33.8 L48,36.1 C48,37.1 47.5,37.7 46.5,37.7 Z" id="Shape"></path>
      </g>
    </g>
  </g>
</svg>
